X:1
T:Prelude and Fugue in G Major.
C:J.C.Bach.
%%score { ( 1 4 5 8 ) | ( 2 6 7 ) | 3 } 9
L:1/8
Q:1/4=80
M:3/4
K:G
V:1 treble nm="             "
V:4 treble 
V:5 treble 
V:8 treble 
V:2 bass 
V:6 bass 
V:7 bass 
V:3 bass 
V:9 bass nm="Organ"
V:1
"^Praeludium.""^Vivace."!fff!"^Manuale.\n\n\n\n\n\n  Pedale." z/ G/B/d/ gf/e/ d/c/B/A/ | %1
 B/d/G/B/ D/B/A/G/ F/E/D/C/ | D/G/B,/D/ x4 | x6 | x6 | x6 | x2 D/G/B,/D/ x2 | x6 | x6 | x6 | %10
 D/B,/D/G/ D/G/B/G/ B/d/B/d/ | g6- | g/b/a/g/ f/e/d/c/ B/A/c/B/ | c6- | %14
 c/e/d/c/ B/A/G/F/ E/D/=F/E/ | z ddddd | eeeeee | f/e/f/g/ f/a/d/a/ e/a/f/a/ | %18
 g/f/g/a/ g/b/e/b/ f/b/g/b/ | a/g/a/b/ a/c'/g/c'/ f/c'/e/c'/ | x bbbbb | baaaaa | aggggg | %23
 g/b/e/g/ ^c/f/e/d/ c/B/A/G/ | a z z2 z2 | b z z2 z2 | z bagfe | d2 z/ A/d- d/d^c/ | %28
 d^c/B/ A/G/F/E/ F/A/D/F/ | x6 | x2 D/F/A,/D/ F/A/D/F/ | z f/e/ f/g/f/e/ ^d/^c/B/=c/ | B z z2 z2 | %33
 z g/f/ g/a/g/f/ e/=d/c/B/ | A z z2 z2 | c6- | c z z2 z2 | B2 z B e2- | %38
 e/g/f/g/ e/g/d/g/ ^c/g/B/g/ | ^A/e/d/e/ ^c/e/B/e/ ^A/e/=G/e/ | F/E/G/F/ E/D/^C/B,/ z2 | %41
 z f e/d/^c/B/ d/c/B/^A/ | B/^A/B/g/ B/f/F/e/ ^G/d/^A/^c/ | B/^A/B/d/ B/e/^A/f/ B/^g/^c/^a/ | %44
 bf e/d/^c/B/ F!>!M^A | Bd/^c/ d/=f/B/d/ ^G/B/D/=F/ | d6- | d/c/B/c/ d/e/=f/e/ d/c/d/B/ | c6- | %49
 c/B/c/a/ f/a/d/f/ A/d/F/A/ | c6- | c/B/A/B/ c/d/e/d/ c/B/c/A/ | BG/F/ GDBG | AA/G/ ADcA | %54
 BB/A/ BGdB | ^cc/=B/ cGe^c | d/A/=c/B/ z/ b/a/g/ f/e/d/c/ | B2- B/B/A/G/ F/A/G/F/ | %58
 G/F/G/A/ G/B/D/B/ G/B/D/B/ | A/G/A/B/ A/c/D/c/ A/c/D/c/ | Bddddd | dccccc | c2 z fga | d2 z gab | %64
 f/e/f/g/ f/a/e/a/ d/a/c/a/ | B/g/f/g/ e/g/d/g/ ^c/g/B/g/ | A/f/e/f/ d/f/^c/f/ B/f/A/f/ | %67
 G/e/d/e/ ^c/e/_B/e/ A/e/G/e/ | ^F/_e/=c/A/ F/ z/ z z/ =E/D/C/ | B,/G/F/E/ D/B/A/G/ F/e/d/c/ | %70
 B/a/g/=f/ e4- | e2 z def | g2 z eag | f/d/f/a/ c'/b/a/g/ f/e/d/c/ | g z z2 z2 | g z z2 z2 | %76
 z/ D/E/F/ G/A/G/A/ B/d/c/e/ | d/f/e/g/ f/d/g/B/ A/g/c/f/ | g2 z FGA | B/A/B/c/ B/e/A/f/ B/g/c/a/ | %80
[Q:1/4=60] .bd c/B/A/G/ D[Q:1/4=30]MF |[Q:1/4=25] G2 z2 z2 |][M:4/4]"^Fuga." z8[Q:1/4=80] | z8 | %84
 z8 | z8 | z8 | z8 | z8 | z8 | z8 | z8 | z8 | z8 | z8 | z AAA dddd | dc/B/ cA ffff | %97
 fe/d/ ee eA d2- | de/d/ ^c/d/B/c/ dA/G/ A/=c/B/d/ | c4 z B/A/ B/d/c/e/ | d4- dc/B/ cA | %101
 =ffff fe/d/ ee | eAdd dc/B/ cA | B^cde ^cAaa | ag/f/ g/f/e/g/ f/e/d/f/ e/g/f/a/ | %105
 g/e/f/g/ a/g/f/e/ dggg | g=f/e/ f/e/d/f/ e/=f/e/d/ c/B/A/G/ | ^F/E/F/G/ d4 ^c2 | %108
 dA a2- a/d/e/f/ g/a/f/g/ | c2- c/e/d/c/ B/A/B/c/ B/c/d/e/ | f/g/f/g/ B/d/c/d/ B2- B/A/B/^c/ | %111
 ^d/e/d/e/ G/B/A/B/ G bbb | bPa/g/ aa adgg | gPf/e/ ff f/e/^d/f/ e/=d/=c/B/ | %114
 c4- c/B/A/c/ B/A/G/F/ | G/B/e- e/g/a- a/g/f/e/ ^d>e | e z z2 z ^def | gf/e/ fd bbbb | %118
 ba/g/ aa ag/f/ ge | c'/b/a/g/ f/b/a/b/ g4- | g4 f4- | f4 e4- | e4 d2 z/ d/B/^G/ | %123
 =c2 z/ c/A/F/ B2 ec | A2- A/c/B/A/ G/A/B/G/ E/B/G/E/ | =D/B/^G/D/ B/=F/E/D/ C/D/E/C/ A,A | %126
 ^cecA d/e/f/d/ a/f/d/A/ | _e/c/A/F/ f/c/B/A/ G/d/B/G/ =e/B/A/G/ | %128
 F/^c/A/F/ d/A/G/F/ E/B/G/E/ ^c/G/F/E/ | D/A/F/D/ d/A/G/F/ E/B/G/E/ e/B/A/G/ | %130
 F/^c/A/F/ f/=c/B/A/ G/d/B/G/ g/f/e/d/ | ^c/e/c/A/ a/e/c/A/ d/f/d/A/ a/f/d/A/ | %132
 e/g/e/^c/ a/e/c/A/ f/a/f/d/ g/e/^c/A/ | f/d/B/A/ G/e/^c/G/ F/A/d/F/ E/d/G/^c/ | d2 z2 z4 | z8 | %136
 z8 | z8 | z8 | z8 | z4 z eee | aaaa a^g/^f/ ge | c'c'c'c' c'b/a/ bb | be a2- ab/a/ ^g/a/^f/g/ | %144
 a2 z2 z4 | z8 | z dgg g=f/e/ ff | =fe/d/ e/g/f/e/ d/c/d/e/ d/=f/e/d/ | cA a2- ag/^f/ gd | %149
 _e2- ed/c/ d2- d/=f/_e/d/ | c/=B/c/d/ c/_e/d/c/ B/A/G/d/- d2- | %151
[Q:1/4=75] d/c/4_B/4_A/c/ c2-[Q:1/4=70] c2 z c | %152
[Q:1/4=65][Q:1/4=63] _B2[Q:1/4=50] z[Q:1/4=40] B[Q:1/4=35] !fermata!B2[Q:1/4=5] z/[Q:1/4=80] A/_B/G/[Q:1/4=60][Q:1/4=58][Q:1/4=55][Q:1/4=45] | %153
[Q:1/4=70] P^F z z2 z4 | z8 | z8 | z4 z ddd | gggg gf/e/ fd | bbbb ba/g/ aa | %159
 ad g2- ga/g/ f/g/e/f/ | g8- | g8- | g8- | g4-[Q:1/4=65] ga/g/[Q:1/4=60] ^f/g/e/f/ | %164
[Q:1/4=55] !fermata!g8[Q:1/4=49][Q:1/4=43][Q:1/4=37][Q:1/4=31] |] %165
V:2
 x6 | x6 | x2 G,/B,/A,/G,/ F,/E,/D,/C,/ | F,/A,/D,/F,/ A,/C/F,/A,/ D,/C/B,/A,/ | %4
 G,/B,/D,/G,/ B,/D/G,/B,/ D,/D/C/B,/ | A,/C/F,/A,/ C/F/A,/C/ D,/E/D/C/ | %6
 B,/D/G,/B,/ x2 G,/B,/D,/G,/ | B,/D/G,/B,/ D,/G,/B,,/D,/ G,/B,/D,/G,/ | %8
 B,,/D,/G,,/B,,/ D,/G,/B,,/D,/ G,,/B,,/D,,/G,,/ | B,,/G,,/B,,/D,/ B,,/D,/G,/C,/ G,/B,/G,/B,/ | x6 | %11
[K:treble] z B,/A,/ B,/C/B,/C/ D/E/D/E/ | A2 A2 z2 | z AAAFF | G2 G2 z2 | =F6 | E6- | EEDCB,A, | %18
 x z z GFE | D2 z FGA | B GGGGF | EEAAAA | FGGGGG | A z z2 z2 | F/A/D/F/ A,/G/F/E/ D/^C/B,/A,/ | %25
[K:bass] ^G,/B,/D,/=F,/ B,,/D,/F,/A,/ ^G,/B,/E,/D,/ | ^C,/A,,/B,,/C,/ D,/E,/D,/E,/ F,/A,/G,/B,/ | %27
 A,B,^CDA,A, | A, z z2 z2 | A,/D/^C/B,/ A,/G,/F,/E,/ F,/A,/D,/F,/ | A,/D/F,/A,/ x4 | z FFFFF | %32
 E z z2 z2 | z EEEEE | Ezx/C/B,/A,/ G,/F,/E,/D,/ | z DDD D2- | D x x2 z2 | G,2 z FED | ^C2 z2 z2 | %39
 x6 | ^A,2 z2 ^A,/=G,/F,/E,/ | z DEEDE | x EF^CDE | FEF z z x | z DEED^C | D z z2 z2 | z EEEEE | %47
 E z z2 z2 | E2 z2 z2 | D2 z2 z2 | z2 z DDD | D2 z2 z2 | G,/D,/B,,/D,/ B,,/D,/E,/F,/ G,/A,/B,/G,/ | %53
 C/D/C/B,/ A,/G,/F,/E,/ D,/C,/B,,/A,,/ | G,,/D,/E,/=F,/ G,/A,/B,/C/ B,/A,/G,/A,/ | %55
 _B,/A,/G,/^F,/ G,/A,/B,/A,/ G,/_B,/A,/G,/ |x2x/G/F/E/ D/C/B,/A,/ | G,2 z/ D/C/B,/ A,/C/B,/A,/ | %58
 B,2 z B,DB, | D2 z DDD | D z z[K:treble] DG=F | E2 z EDE | F/E/F/G/ F/A/D/A/ E/A/F/A/ | %63
 G/F/G/A/ G/B/E/B/ F/B/G/B/ | A/G/A/B/ A/c/G/c/ F/c/E/c/ | D/B/A/B/ G/B/F/B/ E/B/D/B/ | %66
 =C/A/G/A/ F/A/E/A/ D/A/C/A/ | _B,/G/F/G/ E/G/D/G/ ^C/G/_B, | A, z[K:bass] z/ =C/A,/F,/ D,E,/F,/ | %69
 G,/F,/G,/A,/ B,/A,/B,/C/ D/C/B,/A,/ | x2 z E^FG | C2 D4- | D/C/B,/D/ C4- | C2 z2 z2 | %74
[K:treble] B/d/G/B/ D/c/B/A/ G/F/E/D/ |[K:bass] ^C/E/G,/_B,/ E,/G,/B,/D/ ^C/E/A,/G,/ | z2 z DDD | %77
 DC/B,/ A,EA,D | D2 x4 | G,/F,/G,/A,/ G,/C/F,/D/ G,/E/A,/F/ | .GDEEDC | B,2 z2 z2 |][M:4/4] z8 | %83
 z8 | z8 | z4 z G,G,G, | DDDD D^C/B,/ CA, | FFFF FE/D/ EE | EA, D2- DE/D/ ^C/D/B,/C/ | %89
 D/^C/D/E/ D/E/D/=C/ B,/A,/B,/C/ B,/D/C/B,/ | A,2[K:treble] A2- A/D/E/F/ G/A/F/G/ | %91
 C2- C/E/D/C/ B,2- B,/C/D/E/ | F/G/F/G/ A,D- DB, E2- | E2- E/E/D/^C/ D4- | %94
 D/B,/^C/D/ E/F/E/D/ ^C2- C/A,/B,/C/ | D2 z[K:bass] A,- A,^G,/F,/ G,2 | A,2 z2 z2 z A, | %97
 G/A/G/F/ E/D/^C/B,/ A,2- A,/G,/A,/F,/ | G,/F,/G,/A,/ G,/B,/A,/G,/ F,E,F,^G, | A,4 z F,G,A, | %100
 B,4 z B,- B,A,/^G,/ | A,A,DD DG, C2 | A,2 B,2- B,A,/^G,/ A,C | D/E/D/^C/ B,/E/D/E/ A, z z2 | %104
 D/E/^C/D/ E/D/C/B,/ A,DDD | D=C/B,/ C/B,/A,/C/ B,/A,/G,/B,/ A,/C/B,/D/ | %106
 C/A,/B,/C/ D/C/B,/A,/ G,G, A,2- | A,A, B,/C/B,/A,/ G,/A,/G,/F,/ E,/G,/F,/E,/ | D,2 z2 z4 | z8 | %110
 z8 | z8 | z8 | z8 | z8 | z8 | z[K:treble] B,B,B, EEEE | E=D/^C/ DB, GGGG | GF/E/ FF FE/^D/ z B | %119
 A2 z2 E/F/G/A/ z E | A/G/F/E/ =D/^C/B,/A,/ D/E/F/G/ z D | %121
 G/F/E/D/ =C/B,/A,/G,/ ^C/D/E/F/[K:bass] z ^C | F/E/D/^C/ B,/^A,/^G,/F,/ B,DEE, | %123
 =A,=CDD, z/ G,/B,/D/ E,/G,/E,/C,/ | z/ F,/A,/C/ B,,/F,/^D,/B,,/ E,E,, z E, | x6 z/ E/C/A,/ | %126
 =G,/E/^C/G,/ E/_B,/A,/G,/ F,/G,/A,/F,/ D, z | z4 z G, z/ G,/F,/=E,/ | %128
 A, z z/ F,/E,/D,/ G, z z/ E,/D,/^C,/ | z D,/E,/ F,D, z E,/F,/ G,E, | z F,/G,/ A,F, z G,/A,/ B,G, | %131
 z G,/F,/ E,G, z F,/E,/ D,F, | z E,/D,/ ^C,E, z D,/4C,/4D,/ z E,/4D,/4E,/ | %133
 z F,/4E,/4F,/ z G,/4F,/4G,/ A, z x2 | A,4- A,/D/E/F/ E/D/^C/B,/ | %135
 A,2 z A, B,/A,/B,/D/ ^C/D/C/B,/ | A,/G,/F,/E,/ D,/E,/F,/G,/ A,/G,/A,/B,/ A,/G,/F,/E,/ | %137
 D, z[K:treble] z/ A,/D/F/ G/E/F/G/ A/G/F/E/ | DGGG G=F/E/ F/E/D/F/ | %139
 E/D/C/E/ D/=F/E/G/ F/D/E/F/ G/F/E/D/ | C/B,/C/D/ C/E/D/C/ B,/D/^G,/B,/ C/E/D/B,/ | %141
 E/D/C/D/ E/C/B,/A,/ EB, E2- | E/E/^G/E/ A2- A/A/=F/A/ D2- | D/=F/B,/D/ C2- C=F E2- | %144
 EEAA A=G/^F/ GG | GF/E/ FB GEAF | DG/F/ GG[K:bass] ECB,G,- | G,G, C2- CB,/A,/ B,_B, | %148
 A,/G,/A,/_B,/ A,/G,/^F,/E,/ D,/F,/G,/A,/ _B,/G,/A,/B,/ | C4- C/_E/D/C/ =B,/D/C/B,/ | %150
 A,2 D2 D2 z B, | _E4- E/D/C/E/ A,/C/_B,/A,/ | G,/=F,/_E,/G,/ D,/F,/E,/D,/ !fermata!^C,2 z2 | %153
 A, z z2 =B,/A,/B,/C/ B,/C/A,/B,/ | C/B,/C/D/ C/D/B,/C/[K:treble] D/C/D/E/ D/E/C/D/ | %155
 E/D/E/F/ E/F/D/E/ F/A/G/F/ E/D/C/B,/ | C/B,/C/D/ C/E/D/C/ B,/A,/B,/C/ B,/C/A,/B,/ | %157
 ^C/B,/C/D/ C/D/B,/C/ D/C/D/E/ D/E/F/D/ |xB/A/BG x4 | cB/A/ GB- Bc/B/ A2 | G2 z D E2 z E | %161
 =F2 z F G2- G/A/G/^F/ | G4- GB c2 | G4 A4 | !fermata![G,DG]8 |] %165
V:3
 z6 | z6 | z6 | z6 | z6 | z6 | z6 | z6 | z6 | z6 | z6 | z G,/F,/ G,D,B,G, | A,2 D,2 z2 | %13
 z A,/G,/ A,D,CA, | B,2 D,2 z2 | z/ B,/A,/B,/ G,/A,/=F,/G,/ E,/F,/D,/E,/ | %16
 C,/C/B,/C/ A,/B,/G,/A,/ ^F,/G,/E,/F,/ | D,2 z D,D,D, | D,2 z D,D,D, | D,2 z D,D,D, | %20
 G,,/B,/A,/B,/ G,/B,/F,/B,/ E,/B,/D,/B,/ | ^C,/A,/G,/A,/ F,/A,/E,/A,/ D,/A,/C,/A,/ | %22
 B,,/G,/F,/G,/ E,/G,/D,/G,/ ^C,/G,/B,,/G,/ | A,, z z2 z2 | A,, z z2 z2 | A,, z z2 z2 | %26
 z A,,B,,^C,D,E, | F,G,A,^G,A,A,, | D, z z2 z2 | z6 | z6 | z ^D,/^C,/ D,B,,F,^D, | E,2 E,,2 z2 | %33
 z E,/^D,/ E,B,,G,E, | F,2 F,,2 z2 | z F,/E,/ F,D,A,F, | G,2 G,,2 z2 | %37
 z/ G,/F,/G,/ E,/G,/D,/G,/ ^C,/G,/B,,/G,/ | ^A,,2 z2 z2 | ^C,2 z2 z2 | E,2 z2 z2 | z D,G,E,F,F,, | %42
 B,,2 z2 z2 | B,,2 z2 z2 | z D,G,E,F,F,, | B,,2 z2 z2 | z ^G,/F,/ G,E,B,G, | A,2 A,,2 z2 | %48
 z/ C/B,/C/ A,/C/G,/C/ F,/C/E,/C/ | D,2 D2 z2 | z F,/E,/ F,D,A,F, | G,2 G,,2 z2 | z2 G,4- | %53
 G,2 F,4 | =F,6 | E,6 | ^F,2 z2 z2 | z B,,C,A,,D,D,, | G,,2 z G,,B,,G,, | D,2 z D,F,D, | %60
 G,/B,/A,/B,/ G,/A,/=F,/G,/ E,/F,/D,/E,/ | C,/C/B,/C/ A,/B,/G,/A,/ ^F,/G,/E,/F,/ | D,2 z D,D,D, | %63
 D,2 z D,D,D, | D,2 z D,D,D, | D,2 z D,D,D, | D,2 z D,D,D, | D,2 z D,D,D, | D,2 z D,D,D, | %69
 D,D,D,D,D,D, | E,G, C,/C/B,/C/ A,/C/G,/C/ | F,2 z/ B,/A,/B,/ G,/B,/F,/B,/ | %72
 E,2 z/ A,/G,/A,/ F,/A,/E,/A,/ | D,2 z2 z2 | D,2 z2 z2 | D,2 z2 z2 | z D,,E,,F,,G,,A,, | %77
 B,,C,D,C,D,D,, | G,,2 z2 z2 | G,,2 z2 z2 | z B,,E,C,D,D,, | G,,2 z2 z2 |][M:4/4] z8 | z8 | z8 | %85
 z8 | z8 | z8 | z8 | z D,D,D, G,G,G,G, | G,F,/E,/ F,D, B,B,B,B, | B,A,/G,/ A,A, A,D, G,2- | %92
 G,2 F,2 G,2 z G, | A,G,A,F, B,A,G,F, | E,D,^C,B,, A,,G,F,E, | %95
 D,/F,/E,/F,/ D,/E,/^C,/D,/ B,,/E,/D,/E,/ ^C,/D,/B,,/C,/ | %96
 A,,/A,/G,/A,/ F,/G,/E,/F,/ D,/E,/^C,/D,/ B,,/=C,/A,,/B,,/ | %97
 G,,G,- G,/F,/G,/E,/ F,2- F,/E,/F,/D,/ | E,2 A,,2 D,2 z2 | A,,B,,C,D, E,2 z2 | %100
 B,,C,D,E, F,^G,A,A,, | D,/=F,/E,/=G,/ F,/A,/G,/B,/ C,2 z C, | %102
 D,/E,/C,/D,/ B,,/E,/D,/E,/ A,,2 A,2- | A,2 =G,2- G,F,/E,/ F,A,, | B,,B,,^C,C, D,2 z D, | %105
 E,E,F,F, G,2 z G,, | A,,A,,B,,B,, C,2 z ^C, | D,2 z B,, E,2 A,,2 | %108
 D,D,, z/ D,/F,/D,/ G,G,, z/ E,/G,/E,/ | A,G,F,E, G,F,E,D, | C,A,,D,D,, G,,2 z G, | %111
 CA,B,B,, E,2 z E, | A,G,F,E, G,2 z E, | F,E,^D,B,, G,,G,/F,/ G,E, | A,E,C,A,, B,,B,/A,/ B,B,, | %115
 E,D,C,B,, A,,A,B,B,, | E,/F,/^D,/F,/ E,/G,/F,/A,/ G,/A,/F,/A,/ G,/B,/A,/C/ | %117
 B,B,, z/ B,,/A,,/B,,/ G,,/B,,/A,,/C,/ B,,/D,/^C,/E,/ | D,D,, z/ D,/^D,/B,,/ E,E,, z/ E,/G,/E,/ | %119
 A,F,B,B,, E,,2 z2 | z8 | z8 | z8 | z8 | z8 | z8 | z8 | z8 | z8 | z8 | z8 | z8 | z8 | %133
 z4 z A,,A,,A,, | D,D,D,D, D,^C,/B,,/ C,A,, | F,F,F,F, F,E,/D,/ E,E, | E,A,, D,4 ^C,2 | %137
 D,E,F,D, E,E,F,F, | G,2 z G,, A,,A,,B,,B,, | C,2 z C, D,D,E,E, | =F,E,F,D, E,D,C,B,, | %141
 A,,=G,, =F,,2 E,,E, z/ E,/^G,/E,/ | A,A,, z/ A,,/C,/A,,/ D,D,, z/ B,,/D,/B,,/ | %143
 C,C,, z/ C,/E,/C,/ =F,D,E,E,, | A,,2 z/ A,,/C,/A,,/ B,,2 z/ ^C,/E,/C,/ | %145
 D,2 z/ D,/F,/D,/ E,2 z/ F,/A,/F,/ | G,2 z/ G,/B,/G,/ A,2 z/ B,/D/B,/ | C C,C,C, G,G,G,G, | %148
 G,^F,/E,/ F,D, _B,B,B,B, | _B,A,/G,/ A,A, A,D, G,2- | G,2 ^F,2 G,2 z G,, | C,2 z C, D,2 z2 | %152
 D,2 z2 !fermata!F,,2 z2 | D,, D,D,D, G,G,G,G, | G,F,/E,/ F,D, B,B,B,B, | B,A,/G,/ A,A, A,D, G,2- | %156
 G,2 F,2 G,2 z F, | E,4 D,=C,B,,A,, | G,,/G,/F,/G,/ E,/F,/D,/E,/ C,2 z/ C/B,/C/ | %159
 F,/G,/F,/A,/ B,,/C,/B,,/D,/ E,,E,A,,D, | G,,2 z =F,, E,,2 z E,, | D,,2 z D,, C,,2 z C,, | G,,8- | %163
 G,,8- | !fermata!G,,8 |] %165
V:4
 x6 | x6 | x6 | x6 | x6 | x6 | x6 | x6 | x6 | x6 | x6 | z ddddB | x6 | z f/e/ f/g/f/g/ a/b/a/b/ | %14
 d2 z2 z2 | z BBBBB | cccccc | c x5 | d x5 | x6 | x ggggg | geffff | fdeeee | e z z2 z2 | %24
 f z z2 z2 | =f z z2 z2 | z gfed^c | d/B/A/G/ F>F EE | F z z2 z2 | x6 | x6 | A6- | %32
 A/G/F/E/ ^D/E/F/G/ A/G/A/F/ | G6- | G/G/F/E/ D/x/ x3 | z A/B/ A2- A2- | A z D/E/F/G/ A/B/c/F/ | %37
 G2 x4 | F2 z2 z2 | z/ G/F/G/ E/G/D/G/ ^C/G/B,/G/ | x6 | z FBGFF | Fx z4 | x6 | dFGGFE | %45
 F z z2 z2 | z B/A/ B/c/B/A/ ^G/A/B/G/ | E z z2 z2 | A2 z EAG | F2 z2 z2 | %50
 z A/G/ A/B/A/G/ F/G/F/E/ | D2 z4 | z2 z2 z D | x5 F | G2 z2 z G | G2 z2 z G | F z A/x/ x3 | %57
 z/ A/G/F/ E2 D2 | D2 x4 | x6 | x z z BBB | BA/G/ AAAA | A2 z edc | B2 z fed | c2 z2 z2 | x6 | x6 | %67
 x6 | x6 | x6 | x2 z dcB | A2 z FGA | B2 A4- | A2 z2 z2 | d z z2 z2 | e z z2 z2 | x6 | x6 | d2 x4 | %79
 x6 | z GG z z D | D2 z2 z2 |][M:4/4] z DDD GGGG | GF/E/ FD BBBB | BA/G/AA AD G2- | %85
 GA/G/ F/G/E/F/ G/F/G/A/ G/B/A/G/ | F/E/F/G/ F/A/G/F/ E2 e2- | e/A/B/^c/ d/e/c/d/ G2- G/B/A/G/ | %88
 F2- F/G/A/B/ ^c/d/c/d/ EA | F/E/F/G/ F/G/A- AG z G | c/B/A/B/ c/d/B/c/ d2 z d | %91
 e/d/e/=f/ e/g/^f/a/ d/c/d/e/ d/g/f/g/ | A/B/A/B/ c/d/c/d/ B/c/B/A/ G/B/e/d/ | %93
 ^c/B/A/G/ F2- F/F/G/A/ B/=c/B/A/ | G4- G/E/F/G/ A/B/A/G/ | F2 z E FEEE | E2 z2 z Ad=c | %97
 B4 z/ G/F/E/ DF | BG E2 D2 z2 | z E/D/ E/G/F/A/ G4 | z F/E/ F/A/^G/B/ A E2 C | %101
 C2 z B,- B,c/B/ A/G/^F/E/ | F2 ^G2 E2 z/ =G/=F/E/ | x8 | x8 | x8 | x8 | z DDD GGGG | %108
 GF/E/ FD BBBB | BA/G/ AA AD G2- | G2 F2- F/B,/^C/^D/ E2- | E2 ^D2 E/B,/E/G/ B/E/G/B/ | %112
 c/A,/C/E/ A/D/F/A/ B/A/G/F/ E/D/C/B,/ | A,/B/A/G/ F/E/^D/^C/ B,2 B2- | B/A/^G/B/ A/=G/F/E/ ^D4 | %115
 EB,/E/ GE/G/ c/B/A/G/ F/c/B/A/ | G FGA B4- | B2 z =d d2 z G | d2 z B B2 x2 | x6 B/^c/=d/B/ | %120
 ^cdec x2 A/B/=c/A/ | BcdB x2 ^G/^A/B/G/ | ^AB^cA B/F/B/d/ ^G2 | z/ E/A/c/ F2 GF E2 | %124
 FE ^D2 E2 z2 | z4 z2 x2 | x8 | x8 | x8 | x8 | x8 | x8 | x8 | x6 z G- | G/G/F/E/ F/A/G/F/ E z e2- | %135
 e/A/B/^c/ d/e/c/d/ G2- G/B/A/G/ | F2- F/G/A/B/ ^c/d/c/d/ EA | F/E/F/A/ dd d=c/B/ c/B/A/c/ | %138
 B/A/G/B/ A/c/B/d/ c/A/B/c/ d/c/B/A/ | Gccc c_B/A/ B/A/G/B/ | %140
 A/^G/A/=B/ A/c/B/A/ ^G/B/E/G/ A/c/G/B/ | c/e/A- A/e/d/=f/ B2 z2 | z2 z/ c/e/c/ =f2 z/ d/B/d/ | %143
 ^G2 z/ e/c/e/ Ad- d/c/d/B/ | c2 z2 z4 | z Add dc/B/ cc | cB/A/ Be cAdB | G8 | z8 | %149
 z/ G/A/_B/ c/A/B/G/ F2 G2 | A4 GG =F/_A/G/F/ | x2 G/_B/_A/G/ ^F2 z F | G2 z G G2 z2 | %153
 DA/G/ F/E/D/C/ z DDD | AAAA AG/F/ GE | cccc cB/A/ BB | BE A2- AG/F/ G z | z GGG dddd | d x3 eeee | %159
 ed/c/ dd dG c2- | cd/c/ B/c/A/B/ c/B/c/d/ c/d/B/c/ | d/c/d/e/ d/e/c/d/ e/d/c/B/ c2- | %162
 cB/A/ Bc/d/ e/d/e/=f/ e/g/f/e/ | d/c/B/c/ d/=f/e/d/ c4- | cd/c/ B/c/A/c/ !fermata!MB4 |] %165
V:5
 x6 | x6 | x6 | x6 | x6 | x6 | x6 | x6 | x6 | x6 | x6 | z GGGGG | x6 | x6 | x6 | z GGGGG | z G x4 | %17
 [FA] x5 | x6 | x6 | d ddddd | e^ccccc | dBBBBB | ^c z x4 | d z z2 z2 | d z z2 z2 | x6 | x5 G | %28
 D z x4 | x6 | x6 | x6 | x6 | x6 | x6 | z2 z/ G/F/E/ F2- | F z z2 z2 | DD G2- GG | x6 | x6 | x6 | %41
 x6 | x6 | x6 | x6 | x6 | x6 | x6 | x6 | x6 | x6 | x6 | x6 | E2 z2 z D | D2 z2 z D | EE/D/ E2 z E | %56
 D x5 | x6 | x6 | x6 | x6 | x6 | x6 | x6 | x6 | x6 | x6 | x6 | x6 | x6 | x6 | x6 | x6 | x6 | x6 | %75
 _B z z2 z2 | x6 | x6 | B2 x4 | x6 | x6 | x6 |][M:4/4] x8 | x8 | x8 | x8 | x8 | x8 | x8 | x8 | x8 | %91
 x8 | x8 | x8 | x8 | x8 | x8 | x8 | x8 | x8 | x8 | x8 | x8 | x8 | x8 | x8 | x8 | x8 | x8 | x8 | %110
 x8 | x8 | x8 | x8 | x8 | x8 | x8 | x8 | x8 | x8 | x8 | x8 | x8 | x8 | x8 | x8 | x8 | x8 | x8 | %129
 x8 | x8 | x8 | x8 | x8 | x8 | x8 | x8 | x8 | x8 | x8 | x8 | x8 | x8 | x8 | x8 | x8 | x8 | x8 | %148
 x8 | x8 | x8 | x6 z D | D2 z D =E2 z2 | x8 | x8 | x8 | x8 | x8 | x8 | x8 | x8 | x8 | x8 | x8 | %164
 x8 |] %165
V:6
 x6 | x6 | x6 | x6 | x6 | x6 | x6 | x6 | x6 | x6 | x6 |[K:treble] x6 | E2 D2 z2 | z DDDDD | %14
 D2 D2 z2 | x6 | x6 | x z z FDC | DCDDCB, | C2 z2 EF | G DDDDD | GA^CCFE | DDDB,ED | E z z2 z2 | %24
 x6 |[K:bass] x6 | x6 | x6 | x6 | x6 | x6 | z B,B,B,B,B, | B, z z2 z2 | z B,B,B,B,C | C z z2 z2 | %35
 z A,A,A, A,/C/B,/A,/ | G,/A,/B,/C/ x2 z2 | x6 | x6 | x6 | x6 | D,B,B,B,B,^C | D^CD^A,B,C | %43
 D^CDCDE | FB,B,B,B,F, | B, z z2 z2 | B,6- | B,/A,/^G,/A,/ B,/C/D/C/ B,/A,/B,/^G,/ | A,2 z A,A,A, | %49
 A,2 z2 z2 | A,6- | A,/G,/F,/G,/ A,/B,/C/B,/ A,/G,/A,/F,/ | x6 | x6 | x6 | x6 | A,D, z2 z2 | x6 | %58
 x2 z G,G,G, | F,2 z F,A,F, | G, x2[K:treble] x3 | x6 | x6 | x6 | x6 | x6 | x6 | x5 z/ ^C/ | %68
 D z[K:bass] x4 | x6 | G,/=F/E/D/ C4- | C/G/F/E/ B,4- | B,E, A,4- | A,2 z2 z2 |[K:treble] x6 | %75
[K:bass] x6 | F,=CB,A,G,F, | G,2 z G,DA, | G,/F,/G,/A,/ G,/B,/D,/C/ E,/B,/F,/B,/ | x6 | %80
 z G,G,CB,A, | G,2 z2 z2 |][M:4/4] x8 | x8 | x8 | x8 | x8 | x8 | x8 | x8 | x2[K:treble] x6 | x8 | %92
 x8 | x8 | x8 | x3[K:bass] x5 | x8 | x8 | x8 | x8 | x8 | x8 | x8 | B,2 E,2- E,D, z/ A,/B,/^C/ | %104
 x8 | x8 | x8 | x8 | x8 | x8 | x8 | x8 | x8 | x8 | x8 | x8 | x[K:treble] x7 | x8 | x6 E2- | %119
 EF/E/ ^D/E/^C/D/ E2 x2 | x4 D2 x2 | x6[K:bass] x2 | x8 | x8 | x8 | ^G,B,G,E, A,A,, z2 | %126
 z4 z2 z/ A,/F,/D,/ | =C,/A,/F,/C,/ A,/_E,/D,/C,/ B,,2 ^C,2 | z F, B,, z z E, A,, z | %129
 F,,2 z2 G,,2 z2 | A,,2 z2 B,,2 z2 | A,,2 z2 A,,2 z2 | A,,2 z2 A,, z A,, z | %133
 A,, z A,, z z/ G,/F,/G,/ A,2 | x8 | x8 | x8 | x2[K:treble] x6 | x8 | x8 | x8 | x8 | x8 | x8 | x8 | %145
 x8 | x4[K:bass] x4 | x8 | x8 | x8 | x6 z G, | C2 z C =A,2 x2 | x8 | D, x7 | x4[K:treble] x4 | x8 | %156
 x8 | x8 | G4- G/G/A/B/ cc | x8 | z G,G,G, CCCC | CB,/A,/ B,G, EEEE | ED/C/ DD DG, C2- | %163
 CD/C/ B,/C/A,/B,/ C4 | x8 |] %165
V:7
 x6 | x6 | x6 | x6 | x6 | x6 | x6 | x6 | x6 | x6 | x6 |[K:treble] x6 | C2 C2 z2 | x6 | x6 | x6 | %16
 x6 | x cBAGF | B,A,B,B,A,G, | F,A, D4- | D x5 | x6 | x6 | ^C x5 | x6 |[K:bass] x6 | x6 | x6 | x6 | %29
 x6 | x6 | x6 | x6 | x6 | x6 | x6 | x6 | x6 | x6 | x6 | x6 | x6 | B, x5 | x6 | x6 | F, x5 | x6 | %47
 x6 | x6 | x6 | x6 | x6 | x6 | x6 | x6 | x6 | x6 | x6 | x6 | x6 | x3[K:treble] x3 | x6 | x6 | x6 | %64
 x6 | x6 | x6 | x6 | x2[K:bass] x4 | x6 | x6 | x6 | x6 | x6 |[K:treble] x6 |[K:bass] x6 | %76
 z2 z CB,A, | G,2 x4 | x6 | x6 | x6 | x6 |][M:4/4] x8 | x8 | x8 | x8 | x8 | x8 | x8 | x8 | %90
 x2[K:treble] x6 | x8 | x8 | x8 | x8 | x3[K:bass] x5 | x8 | x8 | x8 | x8 | x8 | x8 | x8 | x8 | x8 | %105
 x8 | x8 | x8 | x8 | x8 | x8 | x8 | x8 | x8 | x8 | x8 | x[K:treble] x7 | x8 | x8 | x8 | x8 | %121
 x6[K:bass] x2 | x8 | x8 | x8 | x8 | x8 | x8 | x8 | x8 | x8 | x8 | x8 | x8 | x8 | x8 | x8 | %137
 x2[K:treble] x6 | x8 | x8 | x8 | x8 | x8 | x8 | x8 | x8 | x4[K:bass] x4 | x8 | x8 | x8 | x8 | %151
 G,2 x6 | x8 | x8 | x4[K:treble] x4 | x8 | x8 | x8 | x8 | x8 | x8 | x8 | x8 | G2 D2 _E4 | x8 |] %165
V:8
 x6 | x6 | x6 | x6 | x6 | x6 | x6 | x6 | x6 | x6 | x6 | x6 | x6 | x6 | x6 | x6 | %16
 GG[GA][GA][GA][GA] | x6 | x6 | x6 | x6 | x6 | x6 | x6 | x6 | x6 | x6 | x6 | x6 | x6 | x6 | x6 | %32
 x6 | x6 | x6 | x6 | x6 | x6 | x6 | x6 | x6 | x6 | x6 | x6 | x6 | x6 | x6 | x6 | x6 | x6 | x6 | %51
 x6 | x6 | x6 | x6 | x6 | x6 | x6 | x6 | x6 | x6 | x6 | x6 | x6 | x6 | x6 | x6 | x6 | x6 | x6 | %70
 x6 | x6 | x6 | x6 | x6 | x6 | x6 | x6 | G2 x4 | x6 | x6 | x6 |][M:4/4] x8 | x8 | x8 | x8 | x8 | %87
 x8 | x8 | x8 | x8 | x8 | x8 | x8 | x8 | x8 | x8 | x8 | x8 | x8 | x8 | x8 | x8 | x8 | x8 | x8 | %106
 x8 | x8 | x8 | x8 | x8 | x8 | x8 | x8 | x8 | x8 | x8 | x8 | x8 | x8 | x8 | x8 | x8 | x8 | x8 | %125
 x8 | x8 | x8 | x8 | x8 | x8 | x8 | x8 | x8 | x8 | x8 | x8 | x8 | x8 | x8 | x8 | x8 | x8 | x8 | %144
 x8 | x8 | x8 | x8 | x8 | x8 | x8 | x8 | x8 | x8 | x8 | x8 | x8 | x8 | x8 | x8 | x8 | x8 | x8 | %163
 x8 | x8 |] %165
V:9
 z6 | z6 | z6 | z6 | z6 | z6 | z6 | z6 | z6 | z6 | z6 | z!fff! G,/ F,/ G, D, B, G, | A,2 D,2 z2 | %13
 z A,/ G,/ A, D, C A, | B,2 D,2 z2 | z/ B,/ A,/ B,/ G,/ A,/ =F,/ G,/ E,/ F,/ D,/ E,/ | %16
 C,/ C/ B,/ C/ A,/ B,/ G,/ A,/ ^F,/ G,/ E,/ F,/ | D,2 z D, D, D, | D,2 z D, D, D, | %19
 D,2 z D, D, D, | G,,/ B,/ A,/ B,/ G,/ B,/ F,/ B,/ E,/ B,/ D,/ B,/ | %21
 ^C,/ A,/ G,/ A,/ F,/ A,/ E,/ A,/ D,/ A,/ C,/ A,/ | %22
 B,,/ G,/ F,/ G,/ E,/ G,/ D,/ G,/ ^C,/ G,/ B,,/ G,/ | A,, z z2 z2 | A,, z z4 | A,, z z4 | %26
 z A,, B,, ^C, D, E, | F, G, A, ^G, A, A,, | D, z z2 z2 | z6 | z6 | z ^D,/^C,/ D, B,, F, ^D, | %32
 E,2 E,,2 z2 | z E,/ ^D,/ E, B,, G, E, | F,2 F,,2 z2 | z F,/ E,/ F, D, A, F, | G,2 G,,2 z2 | %37
 z/ G,/ F,/ G,/ E,/ G,/ D,/ G,/ ^C,/ G,/ B,,/ G,/ | ^A,,2 z2 z2 | ^C,2 z2 z2 | E,2 z4 | %41
 z D,G,E,F,F,, | B,,2 z2 z2 | B,,2 z2 z2 | z D,G,E,F,F,, | B,,2 z2 z2 | z ^G,/ F,/ G, E, B, G, | %47
 A,2 A,,2 z2 | z/ C/ B,/ C/ A,/ C/ G,/ C/ F,/ C/ E,/ C/ | D,2 D2 z2 | z F,/ E,/ F, D, A, F, | %51
 G,2 G,,2 z2 | z2 G,4- | G,2 F,4 | =F,6 | E,6 | ^F,2 z2 z2 | z B,, C, A,, D, D,, | %58
 G,,2 z G,, B,, G,, | D,2 z D, F, D, | G,/ B,/ A,/ B,/ G,/ A,/ =F,/ G,/ E,/ F,/ D,/ E,/ | %61
 C,/ C/ B,/ C/ A,/ B,/ G,/ A,/ ^F,/ G,/ E,/ F,/ | D,2 z D, D, D, | D,2 z D, D, D, | %64
 D,2 z D, D, D, | D,2 z D, D, D, | D,2 z D, D, D, | D,2 z D, D, D, | D,2 z D, D, D, | %69
 D, D, D, D, D, D, | E, G, C,/ C/ B,/ C/ A,/ C/ G,/ C/ | F,2 z/ B,/ A,/ B,/ G,/ B,/ F,/ B,/ | %72
 E,2 z/ A,/ G,/ A,/ F,/ A,/ E,/ A,/ | D,2 z2 z2 | D,2 z2 z2 | D,2 z2 z2 | z D,, E,, F,, G,, A,, | %77
 B,, C, D, C, D, D,, | G,,2 z4 | G,,2 z4 | z B,, E, C, D, D,, | G,,2 z2 z2 |][M:4/4] z8 | z8 | z8 | %85
 z8 | z8 | z8 | z8 | z D, D, D, G, G, G, G, | G, F,/ E,/ F, D, B, B, B, B, | %91
 B, A,/ G,/ A, A, A, D, G,2- | G,2 F,2 G,2 z G, | A, G, A, F, B, A, G, F, | %94
 E,D,^C,B,, A,, G, F, E, | D,/ F,/ E,/ F,/ D,/ E,/ ^C,/ D,/ B,,/ E,/ D,/ E,/ ^C,/ D,/ B,,/ C,/ | %96
 A,,/ A,/ G,/ A,/ F,/ G,/ E,/ F,/ D,/ E,/ ^C,/ D,/ B,,/ =C,/ A,,/ B,,/ | %97
 G,,G,- G,/ F,/ G,/ E,/ F,2- F,/ E,/ F,/ D,/ | E,2 A,,2 D,2 z2 | A,, B,, C, D, E,2 z2 | %100
 B,, C, D, E, F, ^G, A, A,, | D,/ =F,/ E,/ =G,/ F,/ A,/ G,/ B,/ C,2 z C, | %102
 D,/ E,/ C,/ D,/ B,,/E,/D,/E,/ A,,2 A,2- | A,2 =G,2- G, F,/ E,/ F, A,, | B,, B,, ^C, C, D,2 z D, | %105
 E, E, F, F, G,2 z G,, | A,, A,, B,, B,, C,2 z ^C, | D,2 z B,, E,2 A,,2 | %108
 D, D,, z/ D,/ F,/ D,/ G, G,, z/ E,/ G,/ E,/ | A, G, F, E, G, F, E, D, | C, A,, D, D,, G,,2 z G, | %111
 C A, B, B,, E,2 z E, | A, G, F, E, G,2 z E, | F, E, ^D, B,, G,,G,/F,/ G, E, | %114
 A, E, C, A,, B,, B,/ A,/ B, B,, | E, D, C, B,, A,, A, B, B,, | %116
 E,/ F,/ ^D,/ F,/ E,/ G,/ F,/ A,/ G,/ A,/ F,/ A,/ G,/ B,/ A,/ C/ | %117
 B, B,, z/ B,,/ A,,/ B,,/ G,,/ B,,/ A,,/ C,/ B,,/ D,/ ^C,/ E,/ | %118
 D, D,, z/ D,/ ^D,/ B,,/ E, E,, z/ E,/ G,/ E,/ | A, F, B, B,, E,,2 z2 | z8 | z8 | z8 | z8 | z8 | %125
 z8 | z8 | z8 | z8 | z8 | z8 | z8 | z8 | z4 z A,, A,, A,, | D, D, D, D, D, ^C,/ B,,/ C, A,, | %135
 F, F, F, F, F, E,/ D,/ E, E, | E, A,, D,4 ^C,2 | D, E, F, D, E, E, F, F, | %138
 G,2 z G,, A,, A,, B,, B,, | C,2 z C, D, D, E, E, | =F, E, F, D, E, D, C, B,, | %141
 A,, =G,, =F,,2 E,, E, z/ E,/ ^G,/ E,/ | A, A,, z/ A,,/ C,/ A,,/ D, D,, z/ B,,/ D,/ B,,/ | %143
 C, C,, z/ C,/E,/C,/ =F, D, E, E,, | A,,2 z/ A,,/ C,/ A,,/ B,,2 z/ ^C,/E,/C,/ | %145
 D,2 z/ D,/ F,/ D,/ E,2 z/ F,/ A,/ F,/ | G,2 z/ G,/ B,/ G,/ A,2 z/ B,/ D/ B,/ | %147
 C C, C, C, G, G, G, G, | G, ^F,/ E,/ F, D, _B, B, B, B, | _B, A,/ G,/ A, A, A, D, G,2- | %150
 G,2 ^F,2 G,2 z G,, | C,2 z C, D,2 z2 | D,2 z2 !fermata!F,,2 z2 | D,, D, D, D, G, G, G, G, | %154
 G, F,/ E,/ F, D, B, B, B, B, | B, A,/ G,/ A, A, A, D, G,2- | G,2 F,2 G,2 z F, | %157
 E,4 D, =C, B,, A,, | G,,/G,/F,/G,/ E,/ F,/ D,/ E,/ C,2 z/ C/ B,/ C/ | %159
 F,/ G,/ F,/ A,/ B,,/ C,/ B,,/ D,/ E,, E, A,, D, | G,,2 z =F,, E,,2 z E,, | D,,2 z D,, C,,2 z C,, | %162
 G,,8- | G,,8- | !fermata!G,,8 |] %165

